icons/evolvere-blue-folders-flat-vivid-dark-fallback/apps/64/abiword.svg

<?xml version="1.0" encoding="UTF-8" standalone="no"?>
<!-- Created with Inkscape (http://www.inkscape.org/) -->

<svg
   xmlns:dc="http://purl.org/dc/elements/1.1/"
   xmlns:cc="http://creativecommons.org/ns#"
   xmlns:rdf="http://www.w3.org/1999/02/22-rdf-syntax-ns#"
   xmlns:svg="http://www.w3.org/2000/svg"
   xmlns="http://www.w3.org/2000/svg"
   xmlns:sodipodi="http://sodipodi.sourceforge.net/DTD/sodipodi-0.dtd"
   xmlns:inkscape="http://www.inkscape.org/namespaces/inkscape"
   width="64"
   height="64"
   id="svg13094"
   version="1.1"
   inkscape:version="0.91+devel r"
   sodipodi:docname="abiword.svg">
  <sodipodi:namedview
     id="base"
     pagecolor="#ffffff"
     bordercolor="#666666"
     borderopacity="1.0"
     inkscape:pageopacity="0"
     inkscape:pageshadow="2"
     inkscape:zoom="11.313709"
     inkscape:cx="32.582609"
     inkscape:cy="31.588465"
     inkscape:document-units="px"
     inkscape:current-layer="svg13094"
     showgrid="true"
     inkscape:snap-bbox="true"
     inkscape:bbox-paths="true"
     inkscape:bbox-nodes="true"
     inkscape:snap-bbox-edge-midpoints="true"
     inkscape:snap-bbox-midpoints="true"
     inkscape:object-paths="true"
     inkscape:snap-intersection-paths="true"
     inkscape:object-nodes="true"
     inkscape:snap-smooth-nodes="true"
     inkscape:snap-midpoints="true"
     inkscape:snap-object-midpoints="true"
     inkscape:snap-center="true"
     showguides="true"
     inkscape:guide-bbox="true"
     inkscape:window-width="1920"
     inkscape:window-height="1023"
     inkscape:window-x="-10"
     inkscape:window-y="35"
     inkscape:window-maximized="1"
     inkscape:snap-global="true"
     fit-margin-top="0"
     fit-margin-left="0"
     fit-margin-right="0"
     fit-margin-bottom="0"
     showborder="true"
     inkscape:showpageshadow="false"
     inkscape:snap-page="true">
    <inkscape:grid
       type="xygrid"
       id="grid3075"
       empspacing="5"
       visible="true"
       enabled="true"
       snapvisiblegridlinesonly="true"
       originx="1.6362304e-08px"
       originy="18px" />
  </sodipodi:namedview>
  <defs
     id="defs13096" />
  <metadata
     id="metadata13099">
    <rdf:RDF>
      <cc:Work
         rdf:about="">
        <dc:format>image/svg+xml</dc:format>
        <dc:type
           rdf:resource="http://purl.org/dc/dcmitype/StillImage" />
        <dc:title></dc:title>
      </cc:Work>
    </rdf:RDF>
  </metadata>
  <path
     style="color:#000000;fill:#2c91ea;fill-opacity:1;fill-rule:nonzero;stroke:none;stroke-width:2.28571415;marker:none;visibility:visible;display:inline;overflow:visible;enable-background:accumulate"
     d="M 0 4 L 0 34 L 0 62 L 2 64 L 32 64 L 62 64 L 64 62 L 64 34 L 64 4 L 32 4 L 0 4 z "
     id="path6498" />
  <path
     style="color:#000000;fill:#64c2ff;fill-opacity:1;fill-rule:nonzero;stroke:none;marker:none;visibility:visible;display:inline;overflow:visible;enable-background:accumulate;stroke-width:2.28571415000000000"
     d="M 2 0 L 0 1 L 0 4 L 32 4 L 64 4 L 64 1 L 62 0 L 32 0 L 2 0 z "
     id="path6502" />
  <path
     style="fill:#7dd3ff;fill-opacity:1;fill-rule:nonzero"
     d="M 0,3 0,6 2,4 Z"
     id="path4298"
     inkscape:connector-curvature="0"
     sodipodi:nodetypes="cccc" />
  <path
     d="M 64,6 62,4 64,3 z"
     id="path3028"
     style="fill:#49aaf5;fill-opacity:1"
     inkscape:connector-curvature="0" />
  <g
     id="g3043"
     inkscape:export-filename="folder.png"
     inkscape:export-xdpi="90"
     inkscape:export-ydpi="90"
     transform="translate(-0.62500009,0.082283)" />
  <g
     id="scalable"
     transform="matrix(1.0385892,0,0,1.0385892,1214.7222,1878.8121)"
     inkscape:label="#g3701"
     style="fill:#ffffff" />
  <path
     style="color:#000000;fill:#002a4e;fill-opacity:0.07692308;fill-rule:nonzero;stroke:none;stroke-width:1;marker:none;visibility:visible;display:inline;overflow:visible;enable-background:accumulate"
     d="m 33.273129,15.445574 c -6.334797,0.144644 -19.90588,27.298994 -19.882478,36.705531 0.140305,2.482771 2.686311,2.327917 4.369775,2.404068 11.152972,-2.317707 26.055384,-12.134352 26.546382,-12.89118 0,0 -22.806234,7.439804 -24.033763,5.134435 C 19.01614,44.439455 29.598585,23.325692 33.491618,23.420136 37.314473,23.509474 52.60938,53.353352 52.60938,53.353352 52.457419,46.381088 49.173205,36.87798 45.180764,29.100814 41.188319,21.325351 36.441112,15.368147 33.273129,15.445574 z"
     id="path3086"
     inkscape:connector-curvature="0" />
  <path
     style="color:#000000;fill:#dce5eb;fill-opacity:1;fill-rule:nonzero;stroke:none;stroke-width:1;marker:none;visibility:visible;display:inline;overflow:visible;enable-background:accumulate"
     d="m 32.273129,14.445574 c -6.334797,0.144644 -19.90588,27.298994 -19.882478,36.705531 0.140305,2.482771 2.686311,2.327917 4.369775,2.404068 11.152972,-2.317707 26.055384,-12.134352 26.546382,-12.89118 0,0 -22.806234,7.439804 -24.033763,5.134435 C 18.01614,43.439455 28.598585,22.325692 32.491618,22.420136 36.314473,22.509474 51.60938,52.353352 51.60938,52.353352 51.457419,45.381088 48.173205,35.87798 44.180764,28.100814 40.188319,20.325351 35.441112,14.368147 32.273129,14.445574 z"
     id="path3823"
     inkscape:connector-curvature="0" />
</svg>

<svg xmlns="http://www.w3.org/2000/svg" viewBox="0 0 64 64"><g color="#000"><path d="m0 4v30 28l2 2h30 30l2-2v-28-30h-32-32" fill="#2c91ea"/><path d="m2 0l-2 1v3h32 32v-3l-2-1h-30-30" fill="#64c2ff"/></g><path d="m0 3v3l2-2" fill="#7dd3ff"/><path d="m64 6l-2-2 2-1z" fill="#49aaf5"/><g color="#000"><path d="m33.27 15.446c-6.335.145-19.906 27.299-19.882 36.706.14 2.483 2.686 2.328 4.37 2.404 11.153-2.318 26.06-12.134 26.546-12.891 0 0-22.806 7.44-24.03 5.134-1.257-2.359 9.326-23.473 13.219-23.378 3.823.089 19.12 29.933 19.12 29.933-.152-6.972-3.436-16.475-7.429-24.25-3.992-7.775-8.74-13.733-11.908-13.655" fill="#002a4e" fill-opacity=".077"/><path d="m32.27 14.446c-6.335.145-19.906 27.299-19.882 36.706.14 2.483 2.686 2.328 4.37 2.404 11.153-2.318 26.06-12.134 26.546-12.891 0 0-22.806 7.44-24.03 5.134-1.257-2.359 9.326-23.473 13.219-23.378 3.823.089 19.12 29.933 19.12 29.933-.152-6.972-3.436-16.475-7.429-24.25-3.992-7.775-8.74-13.733-11.908-13.655" fill="#dce5eb"/></g></svg>
